tools/download-figma-icons/icons/outlined-large/euro-symbol.svg

<svg width="64" height="64" viewBox="0 0 64 64" fill="none" xmlns="http://www.w3.org/2000/svg">
<path fill-rule="evenodd" clip-rule="evenodd" d="M40.6592 41.9325C39.6902 42.5875 38.6892 43.0865 37.6832 43.4125C33.3752 44.8145 28.7092 43.6945 25.5092 40.4865C24.4732 39.4495 23.6802 38.2615 23.1042 36.9995H34.5002C35.3282 36.9995 36.0002 36.3285 36.0002 35.4995C36.0002 34.6715 35.3282 33.9995 34.5002 33.9995H22.1822C22.0162 33.0075 21.9712 32.0005 22.0532 30.9995H34.5002C35.3282 30.9995 36.0002 30.3285 36.0002 29.4995C36.0002 28.6715 35.3282 27.9995 34.5002 27.9995H22.7002C23.2752 26.3615 24.2032 24.8195 25.5092 23.5105C29.5532 19.4595 35.9222 18.8415 40.6602 22.0445C41.3452 22.5075 42.2792 22.3285 42.7432 21.6415C43.2072 20.9545 43.0262 20.0235 42.3402 19.5585C36.4162 15.5555 28.4432 16.3245 23.3862 21.3915C21.4902 23.2905 20.2212 25.5785 19.5562 27.9995H15.5002C14.6722 27.9995 14.0002 28.6715 14.0002 29.4995C14.0002 30.3285 14.6722 30.9995 15.5002 30.9995H19.0552C18.9882 32.0005 19.0232 33.0045 19.1562 33.9995H15.5002C14.6722 33.9995 14.0002 34.6715 14.0002 35.4995C14.0002 36.3285 14.6722 36.9995 15.5002 36.9995H19.8772C20.5972 39.0465 21.7552 40.9715 23.3862 42.6055C26.2492 45.4745 30.0492 47.0085 33.9522 47.0085C35.5072 47.0085 37.0772 46.7655 38.6112 46.2665C39.8842 45.8525 41.1382 45.2305 42.3412 44.4165C43.0262 43.9535 43.2072 43.0205 42.7422 42.3335C42.2772 41.6455 41.3442 41.4685 40.6592 41.9325Z" fill="black"/>
</svg>

<svg xmlns="http://www.w3.org/2000/svg" width="64" height="64" fill="none" viewBox="0 0 64 64"><path fill="currentColor" fill-rule="evenodd" d="M40.66 41.933a12 12 0 0 1-2.977 1.48 11.91 11.91 0 0 1-12.174-2.926 11.9 11.9 0 0 1-2.405-3.488H34.5a1.5 1.5 0 1 0 0-3H22.182a12.2 12.2 0 0 1-.129-3H34.5a1.5 1.5 0 1 0 0-3H22.7a11.9 11.9 0 0 1 2.81-4.488c4.043-4.052 10.412-4.67 15.15-1.466a1.5 1.5 0 0 0 1.68-2.487c-5.924-4.002-13.897-3.233-18.954 1.834A14.9 14.9 0 0 0 19.556 28H15.5a1.5 1.5 0 0 0 0 3h3.555a15 15 0 0 0 .101 3H15.5a1.5 1.5 0 0 0 0 3h4.377a14.9 14.9 0 0 0 3.51 5.605 14.9 14.9 0 0 0 15.224 3.662 15 15 0 0 0 3.73-1.85 1.5 1.5 0 1 0-1.682-2.485" clip-rule="evenodd"/></svg>
